X: 30053
T: CAPT. ROBERT KIDD
C:
%R: march, errl
B: Elias Howe "The Musician's Companion" Part 3 1844 p.4 #3
S: http://imslp.org/wiki/The_Musician's_Companion_(Howe,_Elias)
S: https://archive.org/stream/firstthirdpartof03howe/#page/66/mode/1up
Z: 2016 John Chambers <jc:trillian.mit.edu>
M: 2/4
L: 1/8
K: Am
% - - - - - - - - - - - - - - - - - - - - - - - - -
e |\
cABA | G2EE | A2GA | B2ze |\
cABA | G2Bc | c2zB | cAcd |\
e3e | cAcd | e3B | cABA |\
G2Bc | A3 |]
% - - - - - - - - - - - - - - - - - - - - - - - - -


